X:1
T:Auff einem Berg Sina
T:André Vierendeels
T:Melody by Georg Vogler ((1625) (Soprano voice)
T:Source : Catechismus---Würzburg---J.Volmari---1652. Editor : André Vierendeels (04/09/17). 
T:Notes : Original clef : C1, other voices supplied editorially Original note values have been halved Text Middle German
T:Auff einem Berg Sina
T:©
T:©
C:André Vierendeels
Z:©
%%score [ 1 2 3 ]
L:1/8
Q:1/4=120
M:2/2
K:F
V:1 treble nm="Soprano" snm="S"
V:2 treble-8 nm="Tenor" snm="T"
V:3 bass nm="Bass" snm="B"
V:1
"^1)" G4 A2 F2 | D2 D2 E2 ^F2 | G4 z4 | B4 B2 c2 | d2 c2 B4 | A4 G4 | z4 D4 | G2 B2 A2 G2 | %8
w: Auff ei- nem|Berg Si- na ge-|nant,|zu Mo- y-|ses der Herr|sich wand:|be-|falch dasz man sich|
w: Drauff sprach der|Herz: hör mein Ge-|bott,|O Is- ra-|el, ich bin|dein Gott,|der|dich ausz schwe- rer|
 F2 E2 D4 | z4 G4 | B2 A2 F4 | G4 B2 A2 | B4 z4 | d4 B2 c2 | G2 B2 A4 | G4 F4 | z4 B4 | %17
w: rüs- ten soll,|seins|Ge- * bott|er- ge- ben|woll.|Als- bald hör-|te man Don-|ner, Blitz,|Po-|
w: Dienst- bar- keit,|er-|le- digt ausz|Barm- her- tzig-|keit:|kein frem- de|Göt- ter bey|mir hab,|kein|
 A2 G2 ^F2 G2 | G4 ^F4 | G8 |] %20
w: sau- nen- schall, Dampff,|Ha- gel-|schütz.|
w: Göt- zen we- der|schnitz noch|Grab.|
V:2
"^2)""^1)" B4 F2 A2 | B2 F2 c2 A2 | G4 z4 | d4 B2 G2 | B2 c2 d4 | c4 c4 | z4 B4 | d2 d2 f2 d2 | %8
w: Auff ei- nem|Berg Si- na ge-|nant,|zu Mu- y-|ses der Herr|sich wand:|be-|falch dasz man sich|
w: Dan auch, dein|Glau- ben, Hoff- nung,|Lieb,|al- lein nach|dei- nen Her-|ren üb,|Ab-|göt- te- rey, Wahr-|
 d2 c2 A4 | z4 E4 | D2 F2 A4 | c4 d2 d2 | d4 z4 | A4 d2 e2 | d2 d2 c4 | e4 c4 | z4 d4 | %17
w: rüs- ten soll,|sei-|ne Ge- bot|er- ge- ben|woll.|Aus- bald hör-|te man Don-|ner, Blitz,|Po-|
w: sa- ge- rey,|Ü|ber- glau- ben|und Zau- be-|rey|ver- meyd, und|al- le Lieb|der Welt,|all|
 A2 c2 A2 e2 | d4 d4 | =B8 |] %20
w: sau- nen- schal, Dampf,|Ha- gel-|schütz.|
w: ihr Wol- lust, Ehr,|Gut und|Gelt.|
V:3
"^3)""^1)""^4)" G,4 D,2 D,2 | B,,2 B,,2 C,2 D,2 | G,4 z4 | B,,4 D,2 E,2 | G,2 F,2 B,,4 | F,4 C,4 | %6
w: Auff ei- nem|Berg Si- na ge-|nant,|zu Mo- y-|ses der Herr-|sixh wand:|
w: Dein Schöp- ffer|ehr vor al- lem|Ding,|zu ihm mit|dei- nem Hertz|dich schwing:|
 z4 B,,4 | G,,2 G,,2 D,2 G,,2 | B,,2 C,2 D,4 | z4 C,4 | G,,2 D,2 F,4 | C,4 B,,2 F,2 | G,4 z4 | %13
w: be-|falch dasz man sich|rüs- ten soll,|sei-|ne Ge- bot|er- ge- ben|woll.|
w: die|güt- lich Forcht bringt|Frucht und Preysz,|glaub|mir dar- umb|auff tau- send|weisz.|
 D,4 G,,2 C,2 | G,,2 B,,2 F,,4 | C,4 F,,4 | z4 G,,4 | D,2 E,2 D,2 C,2 | G,,4 D,4 | G,8 |] %20
w: Aus- bald hör-|te man Don-|ner, Blitz,|Po-|sau- nen- schal, Dampf,|Ha- gel-|schütz.|
w: Es kün- digt|sehr der nicht|recht glaubt,|Gott|sei- ner Forcht, Ehe,|Lieb, be-|raubt.|

